imagem/classificacao_12.svg

<svg xmlns="http://www.w3.org/2000/svg" width="2048" height="2048" style="shape-rendering:geometricPrecision;text-rendering:geometricPrecision;image-rendering:optimizeQuality;fill-rule:evenodd;clip-rule:evenodd"><path fill="#fc0" d="M157.5-.5h1732c76.16 11.658 126.66 53.992 151.5 127 2.77 10.35 4.94 20.684 6.5 31v1732c-11.66 76.16-53.99 126.66-127 151.5-10.35 2.77-20.68 4.94-31 6.5h-1732c-76.162-11.66-126.662-53.99-151.5-127a285.429 285.429 0 0 1-6.5-31v-1732C11.158 81.338 53.492 30.838 126.5 6a285.628 285.628 0 0 1 31-6.5Z" style="opacity:1"/><path fill="#fffefe" d="M1246.5 506.5a658.39 658.39 0 0 1 115 7.5c36.02 5.551 68.69 18.885 98 40 23.96 21.741 40.46 48.241 49.5 79.5a441.225 441.225 0 0 1 17 102 666.26 666.26 0 0 1-4 131c-8.63 50.574-25.97 97.907-52 142a971.967 971.967 0 0 1-32 50L1207.5 1385c112.33.5 224.67.67 337 .5v155h-545c-.167-63.67 0-127.33.5-191 85.33-124.67 170.67-249.33 256-374 23.76-37.198 42.43-76.864 56-119a208.482 208.482 0 0 0 9-48c.8-34.678.47-69.345-1-104a184.855 184.855 0 0 0-9-48c-11.25-21.993-29.09-30.16-53.5-24.5-12.2 3.845-20.7 11.678-25.5 23.5-6.01 16.449-9.35 33.449-10 51a1683.582 1683.582 0 0 0-1.5 91h-206c-1.94-53.89 3.89-106.89 17.5-159 8.84-31.122 24.67-57.955 47.5-80.5 31.45-24.546 67.12-39.546 107-45a924.208 924.208 0 0 1 60-6.5ZM658.5 1540.5c.333-252.33 0-504.67-1-757-.607.124-.94.457-1 1-33.578 35.022-73.411 60.689-119.5 77a5581.892 5581.892 0 0 1 .5-183c48.848-26.678 89.014-63.012 120.5-109a359.983 359.983 0 0 0 23.5-45c57.663-1 115.329-1.333 173-1v1017h-196Z" style="opacity:1"/><path fill="#fffae4" d="M656.5 784.5c.06-.543.393-.876 1-1 1 252.33 1.333 504.67 1 757l-2-756Z" style="opacity:1"/></svg>

<?xml version="1.0" encoding="UTF-8"?>
<!DOCTYPE svg PUBLIC "-//W3C//DTD SVG 1.1//EN" "http://www.w3.org/Graphics/SVG/1.1/DTD/svg11.dtd">
<svg xmlns="http://www.w3.org/2000/svg" version="1.1" width="2048px" height="2048px" style="shape-rendering:geometricPrecision; text-rendering:geometricPrecision; image-rendering:optimizeQuality; fill-rule:evenodd; clip-rule:evenodd" xmlns:xlink="http://www.w3.org/1999/xlink">
<g><path style="opacity:1" fill="#ffcc00" d="M 157.5,-0.5 C 734.833,-0.5 1312.17,-0.5 1889.5,-0.5C 1965.66,11.1582 2016.16,53.4915 2041,126.5C 2043.77,136.85 2045.94,147.184 2047.5,157.5C 2047.5,734.833 2047.5,1312.17 2047.5,1889.5C 2035.84,1965.66 1993.51,2016.16 1920.5,2041C 1910.15,2043.77 1899.82,2045.94 1889.5,2047.5C 1312.17,2047.5 734.833,2047.5 157.5,2047.5C 81.3377,2035.84 30.8377,1993.51 6,1920.5C 3.2312,1910.15 1.06453,1899.82 -0.5,1889.5C -0.5,1312.17 -0.5,734.833 -0.5,157.5C 11.1582,81.3377 53.4915,30.8377 126.5,6C 136.85,3.2312 147.184,1.06453 157.5,-0.5 Z"/></g>
<g><path style="opacity:1" fill="#fffefe" d="M 1246.5,506.5 C 1285.06,505.639 1323.39,508.139 1361.5,514C 1397.52,519.551 1430.19,532.885 1459.5,554C 1483.46,575.741 1499.96,602.241 1509,633.5C 1518.66,666.816 1524.33,700.816 1526,735.5C 1528.97,779.308 1527.64,822.975 1522,866.5C 1513.37,917.074 1496.03,964.407 1470,1008.5C 1459.83,1025.51 1449.17,1042.17 1438,1058.5C 1361.17,1167.33 1284.33,1276.17 1207.5,1385C 1319.83,1385.5 1432.17,1385.67 1544.5,1385.5C 1544.5,1437.17 1544.5,1488.83 1544.5,1540.5C 1362.83,1540.5 1181.17,1540.5 999.5,1540.5C 999.333,1476.83 999.5,1413.17 1000,1349.5C 1085.33,1224.83 1170.67,1100.17 1256,975.5C 1279.76,938.302 1298.43,898.636 1312,856.5C 1316.88,840.855 1319.88,824.855 1321,808.5C 1321.8,773.822 1321.47,739.155 1320,704.5C 1319.12,688.087 1316.12,672.087 1311,656.5C 1299.75,634.507 1281.91,626.34 1257.5,632C 1245.3,635.845 1236.8,643.678 1232,655.5C 1225.99,671.949 1222.65,688.949 1222,706.5C 1220.68,736.817 1220.18,767.151 1220.5,797.5C 1151.83,797.5 1083.17,797.5 1014.5,797.5C 1012.56,743.61 1018.39,690.61 1032,638.5C 1040.84,607.378 1056.67,580.545 1079.5,558C 1110.95,533.454 1146.62,518.454 1186.5,513C 1206.58,510.164 1226.58,507.997 1246.5,506.5 Z"/></g>
<g><path style="opacity:1" fill="#fffefe" d="M 658.5,1540.5 C 658.833,1288.17 658.5,1035.83 657.5,783.5C 656.893,783.624 656.56,783.957 656.5,784.5C 622.922,819.522 583.089,845.189 537,861.5C 536.167,800.497 536.333,739.497 537.5,678.5C 586.348,651.822 626.514,615.488 658,569.5C 666.868,555.099 674.702,540.099 681.5,524.5C 739.163,523.5 796.829,523.167 854.5,523.5C 854.5,862.5 854.5,1201.5 854.5,1540.5C 789.167,1540.5 723.833,1540.5 658.5,1540.5 Z"/></g>
<g><path style="opacity:1" fill="#fffae4" d="M 656.5,784.5 C 656.56,783.957 656.893,783.624 657.5,783.5C 658.5,1035.83 658.833,1288.17 658.5,1540.5C 657.833,1288.5 657.167,1036.5 656.5,784.5 Z"/></g>
</svg>
